src/assets/images/icons/baseline/Firefox.svg

<svg id="Firefox" width="16" height="16" viewBox="0 0 16 16" fill="none" xmlns="http://www.w3.org/2000/svg">
<path d="M1.69653 4.76853C1.05988 5.98256 0.790309 7.35564 0.920695 8.72027C1.05108 10.0849 1.57579 11.3821 2.43082 12.4536C3.28585 13.5251 4.43423 14.3246 5.73589 14.7546C7.03754 15.1846 8.43621 15.2265 9.76126 14.8751C11.0863 14.5238 12.2805 13.7944 13.1981 12.776C14.1157 11.7576 14.7171 10.4941 14.9289 9.13974C15.1407 7.78536 14.9538 6.39861 14.3909 5.14866C13.828 3.8987 12.9136 2.83958 11.759 2.10047C10.4752 1.30005 9.35465 1.30005 7.95235 1.30005H6.65991" stroke="#E66000" stroke-linecap="round"/>
<path d="M2.39218 6.0752C1.0142 4.84397 1.76047 1.85338 2.47771 1.23345C2.5452 1.93656 2.93678 2.1814 3.34954 2.55571C4.0401 2.33991 4.37988 2.33442 4.81462 2.55571C5.45809 1.84161 6.14394 0.708472 6.87687 0.913284C6.0278 2.27949 6.82194 3.84266 7.95273 4.18794C7.81933 4.95304 6.7882 5.68911 5.78689 6.29571C4.76989 7.03178 5.22032 7.74744 5.78689 8.04878C6.5316 8.44585 8.62053 7.26405 9.35346 8.32657C8.021 8.40661 8.14813 10.7647 6.22791 10.4665C8.20777 11.2175 9.63753 10.8291 10.5109 10.1997C12.0529 9.00693 12.7702 7.42022 12.7702 5.839C12.7592 4.74195 12.9224 3.72417 11.7814 2.11156" stroke="#E66000" stroke-linecap="round"/>
</svg>

<svg xmlns="http://www.w3.org/2000/svg" id="Firefox" width="16" height="16" fill="none"><path stroke="#E66000" stroke-linecap="round" d="M1.697 4.769A7.063 7.063 0 1 0 11.759 2.1c-1.284-.8-2.404-.8-3.807-.8H6.66"/><path stroke="#E66000" stroke-linecap="round" d="M2.392 6.075c-1.378-1.231-.632-4.222.086-4.842.067.704.459.948.872 1.323.69-.216 1.03-.222 1.465 0C5.458 1.842 6.144.708 6.877.913c-.85 1.366-.055 2.93 1.076 3.275-.134.765-1.165 1.501-2.166 2.108-1.017.736-.567 1.451 0 1.753.745.397 2.834-.785 3.566.278-1.332.08-1.205 2.438-3.125 2.14 1.98.75 3.41.362 4.283-.267 1.542-1.193 2.26-2.78 2.26-4.361-.012-1.097.151-2.115-.99-3.727"/></svg>
